build/assets/img/about-us/seo-element-5.svg

<svg width="66" height="80" viewBox="0 0 66 80" fill="none" xmlns="http://www.w3.org/2000/svg">
<path d="M62.4134 57.8063L45.7626 71.2436C44.2541 72.461 41.9933 72.1487 40.7126 70.5555L20.8203 45.7789C20.2278 45.0455 19.9203 44.1198 19.952 43.1656L20.524 26.8007C20.5203 26.3144 20.6286 25.8309 20.8405 25.3872C21.0524 24.9436 21.3623 24.5517 21.7464 24.2417C22.1304 23.9318 22.5784 23.7121 23.0557 23.5995C23.533 23.487 24.027 23.4845 24.4995 23.5925L40.5677 26.5286C41.5029 26.7019 42.3384 27.1995 42.928 27.9344L62.8204 52.711C64.0989 54.306 63.9182 56.5886 62.4134 57.8063ZM24.8675 25.5207C24.3725 25.3876 23.8398 25.4539 23.383 25.7057C22.9261 25.9574 22.5812 26.3747 22.4216 26.8685C22.3423 27.1103 22.3118 27.3642 22.3319 27.6153C22.3519 27.8664 22.4222 28.1097 22.5384 28.3308C22.6547 28.552 22.8147 28.7466 23.009 28.9032C23.2033 29.0599 23.428 29.1754 23.67 29.2431C24.1639 29.377 24.6958 29.3119 25.1525 29.0616C25.6092 28.8113 25.9545 28.3955 26.115 27.9029C26.1943 27.6606 26.2249 27.4063 26.205 27.1547C26.185 26.9031 26.1149 26.6594 25.9988 26.4377C25.8827 26.2159 25.7229 26.0207 25.5286 25.8632C25.3344 25.7058 25.1096 25.5894 24.8675 25.5207Z" fill="url(#paint0_linear)"/>
<path d="M22.8341 25.6923C20.8154 26.6983 17.9683 32.6518 7.14767 29.1254C4.47957 28.2554 3.10267 26.5022 3.35631 24.2938C3.65361 21.789 6.20604 18.9111 9.94907 18.4115C14.681 17.7948 16.7704 18.8778 21.1067 24.29C21.1316 24.3145 21.1607 24.3346 21.1925 24.3495C21.3569 24.1642 21.5397 23.9962 21.7381 23.848C21.716 23.814 21.6906 23.7822 21.6622 23.7533C16.7999 17.6674 14.8708 17.0008 9.869 17.6489C6.16582 18.1333 2.9661 21.0218 2.58952 24.2246C2.28875 26.8204 3.85222 28.867 6.89131 29.8579C18.9981 33.8071 21.8215 27.0489 23.1648 26.378C23.1897 26.3631 23.2124 26.3447 23.2322 26.3235C23.3084 26.2635 23.3602 26.178 23.3776 26.0835C23.3949 25.989 23.3765 25.8924 23.3259 25.8125C23.2753 25.7327 23.1963 25.6753 23.1041 25.6515C23.012 25.6278 22.9133 25.6394 22.8275 25.6841L22.8341 25.6923Z" fill="#414042"/>
<path d="M36.0241 46.9201L33.7457 48.7547L38.8265 55.0789L37.8967 55.8276L32.8158 49.5034L30.5423 51.334L29.9238 50.5642L35.4056 46.1503L36.0241 46.9201Z" fill="black"/>
<path d="M44.7124 50.3396C44.5769 50.2775 44.386 50.1263 44.1396 49.8861C44.0706 50.6585 43.7456 51.2786 43.1646 51.7464C42.6453 52.1645 42.1011 52.362 41.532 52.3388C40.9634 52.3098 40.4978 52.0695 40.1351 51.618C39.6941 51.0691 39.5599 50.4763 39.7327 49.8397C39.906 49.1973 40.3708 48.5716 41.1271 47.9627L42.0034 47.2571L41.6706 46.843C41.4175 46.5279 41.1225 46.3536 40.7855 46.32C40.4459 46.2832 40.0927 46.4124 39.7259 46.7077C39.4046 46.9664 39.2005 47.2645 39.1135 47.602C39.0265 47.9395 39.0757 48.2236 39.261 48.4542L38.3555 49.1833C38.1441 48.9202 38.033 48.5924 38.0223 48.1998C38.0122 47.8014 38.1088 47.4027 38.3121 47.0036C38.5185 46.602 38.8133 46.247 39.1963 45.9386C39.8032 45.4499 40.4013 45.2197 40.9906 45.2481C41.5774 45.2731 42.0912 45.5468 42.5321 46.069L44.4815 48.4954C44.8703 48.9794 45.2412 49.3147 45.5942 49.5012L45.6568 49.5792L44.7124 50.3396ZM42.6659 50.8561C42.9482 50.6287 43.1573 50.34 43.293 49.99C43.4287 49.64 43.4594 49.3024 43.3851 48.977L42.5161 47.8954L41.8102 48.4638C40.7067 49.3523 40.4146 50.1198 40.934 50.7662C41.161 51.0487 41.4326 51.1938 41.7487 51.2014C42.0648 51.209 42.3705 51.0939 42.6659 50.8561Z" fill="black"/>
<path d="M44.5166 46.084C43.8563 45.2623 43.5217 44.4565 43.5126 43.6667C43.5009 42.8738 43.8082 42.2251 44.4346 41.7207C45.0772 41.2033 45.7613 41.0269 46.4869 41.1916L46.061 40.5716L46.8838 39.9091L51.0174 45.0543C51.5654 45.7364 51.7944 46.4373 51.7045 47.157C51.6178 47.8741 51.2336 48.507 50.5521 49.0558C50.1723 49.3616 49.7355 49.5796 49.2415 49.7099C48.7475 49.8402 48.2913 49.8411 47.8727 49.7127L47.9056 48.7955C48.6754 48.962 49.3395 48.8205 49.8977 48.3711C50.3359 48.0183 50.5775 47.6204 50.6226 47.1776C50.6709 46.7321 50.515 46.2852 50.1549 45.837L49.7909 45.3838C49.7646 46.0897 49.4399 46.6935 48.8168 47.1953C48.2001 47.6918 47.5007 47.8458 46.7184 47.6572C45.9394 47.4659 45.2055 46.9416 44.5166 46.084ZM45.5043 45.4572C45.9818 46.0517 46.4793 46.4214 46.9967 46.5665C47.5115 46.7083 47.988 46.6028 48.4262 46.25C48.9942 45.7927 49.2038 45.1986 49.055 44.4679L47.1213 42.0609C46.4409 41.7796 45.8249 41.8611 45.2731 42.3053C44.835 42.6581 44.6296 43.1044 44.6569 43.644C44.6842 44.1837 44.9667 44.7881 45.5043 45.4572Z" fill="black"/>
<path d="M44.7738 62.0492C44.1465 62.313 43.6309 62.4324 43.2269 62.4074C42.8234 62.3787 42.4955 62.2075 42.2434 61.8936C41.9581 61.5384 41.8639 61.1314 41.9607 60.6725C42.058 60.2099 42.3335 59.7959 42.7874 59.4304C43.0968 59.1812 43.4203 59.0193 43.7579 58.9447C44.0975 58.8684 44.418 58.8824 44.7192 58.9867C45.0225 59.0894 45.2745 59.2656 45.4752 59.5155L44.8779 59.9964C44.659 59.7238 44.4007 59.5799 44.103 59.5646C43.8036 59.5472 43.4961 59.6656 43.1805 59.9198C42.8876 60.1557 42.7108 60.4051 42.6503 60.6681C42.5901 60.9274 42.6521 61.1716 42.8362 61.4009C42.9839 61.5846 43.1865 61.6782 43.444 61.6817C43.702 61.6814 44.06 61.5835 44.518 61.3881C44.978 61.1911 45.3647 61.0718 45.6779 61.0304C45.9916 60.9853 46.267 61.0066 46.5041 61.0945C46.7433 61.1808 46.9549 61.3385 47.139 61.5677C47.4326 61.9332 47.5258 62.3411 47.4186 62.7913C47.3097 63.2394 47.017 63.6554 46.5405 64.0392C46.231 64.2884 45.8949 64.4621 45.5322 64.5604C45.1678 64.6566 44.8294 64.6604 44.5171 64.5719C44.2068 64.4817 43.9464 64.3054 43.7357 64.0432L44.3329 63.5623C44.5519 63.8348 44.8253 63.97 45.1531 63.9679C45.4813 63.962 45.8136 63.8237 46.1498 63.5529C46.4634 63.3004 46.6523 63.0428 46.7166 62.7802C46.7808 62.5176 46.7242 62.2758 46.5468 62.0549C46.3693 61.8339 46.1551 61.7259 45.9041 61.7307C45.6516 61.7335 45.2748 61.8397 44.7738 62.0492Z" fill="black"/>
<path d="M50.3299 57.4525L48.3773 59.0249L49.6612 60.6231L51.9294 58.7965L52.32 59.2828L49.4577 61.5879L45.835 57.0781L48.6665 54.7979L49.0596 55.2873L46.8223 57.089L47.9867 58.5386L49.9393 56.9662L50.3299 57.4525Z" fill="black"/>
<path d="M55.4648 53.2765C55.8197 53.7184 56.0556 54.1644 56.1725 54.6144C56.2877 55.0623 56.2788 55.4826 56.1458 55.8754C56.0128 56.2681 55.7648 56.6107 55.4017 56.9031C55.0469 57.1889 54.6626 57.3555 54.2489 57.403C53.8336 57.4484 53.4202 57.3715 53.0088 57.1724C52.5977 56.9694 52.2193 56.657 51.8735 56.2349L51.6123 55.9097C51.2639 55.476 51.0315 55.0324 50.9151 54.5786C50.7986 54.1249 50.8071 53.6998 50.9405 53.3033C51.0743 52.9031 51.3186 52.5602 51.6734 52.2744C52.0344 51.9837 52.4226 51.8156 52.838 51.7702C53.2537 51.721 53.6694 51.8028 54.085 52.0157C54.4989 52.2264 54.8826 52.5517 55.2359 52.9916L55.4648 53.2765ZM54.6398 53.4613C54.2102 52.9265 53.7737 52.603 53.3303 52.4908C52.8851 52.3766 52.4697 52.4748 52.0839 52.7855C51.7085 53.0878 51.5277 53.4697 51.5417 53.9312C51.556 54.3889 51.7641 54.8743 52.166 55.3872L52.4322 55.7187C52.8485 56.237 53.2844 56.5576 53.7399 56.6805C54.1958 56.7997 54.6145 56.7056 54.9962 56.3982C55.3799 56.0892 55.565 55.7106 55.5515 55.2624C55.5363 54.8121 55.322 54.3233 54.9086 53.7959L54.6398 53.4613Z" fill="black"/>
<path fill-rule="evenodd" clip-rule="evenodd" d="M38.0234 61.7617L54.986 48.1014L60.0867 54.4513L43.1242 68.1117L38.0234 61.7617ZM38.4304 61.8417L43.1334 67.6965L59.6797 54.3714L54.9767 48.5166L38.4304 61.8417Z" fill="black"/>
<defs>
<linearGradient id="paint0_linear" x1="47.5165" y1="75.2484" x2="33.114" y2="10.8018" gradientUnits="userSpaceOnUse">
<stop stop-color="#F5193B"/>
<stop offset="0.307292" stop-color="#D62440"/>
<stop offset="0.536458" stop-color="#BE2941"/>
<stop offset="0.8125" stop-color="#A62E41"/>
<stop offset="1" stop-color="#A62E41"/>
</linearGradient>
</defs>
</svg>

<svg width="66" height="80" fill="none" xmlns="http://www.w3.org/2000/svg"><path d="M62.413 57.806l-16.65 13.438c-1.509 1.217-3.77.905-5.05-.689L20.82 45.78a3.943 3.943 0 01-.868-2.613l.572-16.365c-.004-.487.105-.97.316-1.414a3.303 3.303 0 012.216-1.788 3.193 3.193 0 011.444-.006l16.068 2.936a3.94 3.94 0 012.36 1.405L62.82 52.711c1.279 1.595 1.098 3.878-.407 5.095zM24.868 25.521a2.002 2.002 0 00-1.485.185 2.051 2.051 0 00-.961 1.163c-.08.241-.11.495-.09.746a1.826 1.826 0 001.338 1.628 2 2 0 001.482-.181 2.05 2.05 0 00.963-1.16c.08-.241.11-.496.09-.747a1.834 1.834 0 00-1.337-1.634z" fill="url(#paint0_linear)"/><path d="M22.834 25.692c-2.019 1.006-4.866 6.96-15.686 3.433-2.668-.87-4.045-2.623-3.792-4.831.298-2.505 2.85-5.383 6.593-5.883 4.732-.616 6.821.467 11.158 5.879a.31.31 0 00.085.06c.165-.186.348-.354.546-.502a.607.607 0 00-.076-.095C16.8 17.667 14.871 17.001 9.87 17.65c-3.703.484-6.903 3.373-7.28 6.576-.3 2.595 1.263 4.642 4.302 5.633 12.107 3.95 14.93-2.81 16.274-3.48a.31.31 0 00.067-.055.398.398 0 00.146-.24.372.372 0 00-.274-.432.39.39 0 00-.276.033l.006.008z" fill="#414042"/><path d="M36.024 46.92l-2.278 1.835 5.08 6.324-.93.749-5.08-6.325-2.274 1.831-.618-.77 5.482-4.414.618.77zm8.688 3.42c-.135-.063-.326-.214-.572-.454-.07.772-.394 1.393-.975 1.86-.52.418-1.064.616-1.633.593a1.84 1.84 0 01-1.397-.721c-.44-.549-.575-1.142-.402-1.778.173-.643.638-1.268 1.394-1.877l.876-.706-.332-.414c-.254-.315-.548-.49-.886-.523-.34-.037-.692.092-1.06.388-.32.258-.525.556-.611.894-.087.338-.038.622.147.852l-.906.73c-.21-.264-.322-.592-.333-.984-.01-.399.087-.797.29-1.196.207-.402.501-.757.884-1.065.607-.49 1.205-.72 1.795-.69.586.024 1.1.298 1.541.82l1.95 2.426c.388.484.76.82 1.112 1.006l.063.078-.945.76zm-2.046.516c.282-.227.491-.516.627-.866s.166-.688.092-1.013l-.869-1.082-.706.569c-1.103.888-1.395 1.656-.876 2.302.227.283.499.428.815.435.316.008.621-.107.917-.345zm1.851-4.772c-.66-.822-.995-1.628-1.004-2.417-.012-.793.295-1.442.922-1.946.642-.518 1.326-.694 2.052-.53l-.426-.62.823-.662 4.133 5.145c.548.682.777 1.383.688 2.103-.087.717-.471 1.35-1.153 1.899-.38.306-.816.524-1.31.654-.494.13-.95.131-1.37.003l.034-.918c.77.167 1.434.026 1.992-.424.438-.353.68-.75.725-1.193.048-.446-.108-.893-.468-1.341l-.364-.453c-.026.706-.351 1.31-.974 1.811-.617.497-1.316.65-2.099.462-.779-.191-1.513-.715-2.201-1.573zm.987-.627c.478.595.975.964 1.493 1.11.514.141.991.036 1.43-.317.567-.457.777-1.051.628-1.782l-1.934-2.407c-.68-.281-1.296-.2-1.848.244-.438.353-.643.8-.616 1.339.027.54.31 1.144.847 1.813zm-.73 16.593c-.627.263-1.143.382-1.547.357a1.332 1.332 0 01-.984-.513 1.398 1.398 0 01-.282-1.221c.097-.463.373-.877.826-1.243.31-.249.633-.41.97-.485.34-.077.661-.063.962.042.303.102.556.279.756.529l-.597.48c-.219-.272-.477-.416-.775-.431-.3-.018-.607.1-.922.355-.293.236-.47.485-.53.748-.06.26.001.504.185.733.148.184.35.277.608.28.258 0 .616-.097 1.074-.293.46-.197.847-.316 1.16-.358.314-.045.589-.023.826.064.24.087.45.245.635.474.294.365.387.773.28 1.223-.11.448-.402.864-.878 1.248-.31.25-.646.423-1.009.521-.364.097-.703.1-1.015.012-.31-.09-.57-.267-.781-.529l.597-.48c.219.272.492.407.82.405.328-.006.66-.144.997-.415.313-.253.502-.51.567-.773a.801.801 0 00-.17-.725c-.178-.221-.392-.33-.643-.324-.252.002-.63.109-1.13.318zm5.556-4.597l-1.953 1.572 1.284 1.598 2.268-1.826.391.486-2.862 2.305-3.623-4.51 2.831-2.28.394.49-2.238 1.801 1.165 1.45 1.952-1.573.39.486zm5.135-4.177c.355.442.59.888.707 1.338.116.448.107.869-.026 1.261a2.23 2.23 0 01-.744 1.028c-.355.286-.74.453-1.153.5a2.244 2.244 0 01-1.24-.23c-.411-.204-.79-.516-1.136-.938l-.26-.325c-.35-.434-.581-.878-.698-1.331-.116-.454-.108-.88.026-1.276.133-.4.378-.743.732-1.029a2.22 2.22 0 011.165-.504c.416-.049.831.033 1.247.246.414.21.798.536 1.15.976l.23.285zm-.825.185c-.43-.535-.866-.858-1.31-.97-.445-.114-.86-.016-1.246.294-.376.303-.556.685-.542 1.146.014.458.222.943.624 1.456l.266.332c.416.518.852.839 1.308.962.456.119.874.025 1.256-.283.384-.309.569-.687.555-1.136-.015-.45-.229-.939-.642-1.466l-.27-.335z" fill="#000"/><path fill-rule="evenodd" clip-rule="evenodd" d="M38.023 61.762l16.963-13.66 5.1 6.35-16.962 13.66-5.1-6.35zm.407.08l4.703 5.855L59.68 54.37l-4.703-5.854L38.43 61.842z" fill="#000"/><defs><linearGradient id="paint0_linear" x1="47.517" y1="75.248" x2="33.114" y2="10.802" gradientUnits="userSpaceOnUse"><stop stop-color="#F5193B"/><stop offset=".307" stop-color="#D62440"/><stop offset=".536" stop-color="#BE2941"/><stop offset=".813" stop-color="#A62E41"/><stop offset="1" stop-color="#A62E41"/></linearGradient></defs></svg>
